X:1
T:A Cradle Song
T:F. Melville Esq. 8th December 2015
T:Text by William Blake
T:A Cradle Song
T:Copyright © 
T:Copyright © 
C:F. Melville Esq.
C:8th December 2015
Z:Text by William Blake
Z:Copyright ©
%%score [ ( 1 2 ) ( 3 4 ) ]
L:1/8
M:3/2
K:C
V:1 treble nm="SOPRANO ALTO" snm="S."
V:2 treble 
V:3 bass nm="TENOR BASS" snm="B."
V:4 bass 
V:1
 x2 (A2 A2) | G6 A2 B2 A2 | ^G8 A2 B2 | c6 c2 B2 A2 | ^G8 (A2 B2) | c2 d2 c2 B2 A2 A2 | E8 F2 G2 | %7
w: * 1.Sleep|sleep _ hap- py|child, All cre-|a- tion slept and|smil'd. Sleep _|Sleep _ _ _ hap- py|sleep. While _|
w: 2.Sweet _|babe _ in thy|face, Ho- ly|i- mage I can|trace. Sweet _|babe _ _ _ once like|thee. Thy _|
w: 3.Wept for|me for thee for|all, When he|was an in- fant|small. Thou his|i- * * mage e- ver|see. Heaven- ly|
w: 4.Smiles on|thee on me on|all, Who be-|came an in- fant|small, In- fant|smiles _ _ are his own|smiles, Heaven and|
 E2 A2 B2 c2 B2 G2 |[M:2/2] A8 |] %9
w: o'- er thee thy mo- ther|weep.|
w: mak- er lay and wept for|me.|
w: face that smiles _ on _|thee.|
w: earth _ _ to peace be-|guiles.|
V:2
 x2 (E2 E2) | E6 E2 G2 E2 | E8 E2 =G2 | G6 G2 G2 E2 | E8 (F2 F2) | A6 =G2 E2 E2 | E8 D2 D2 | %7
 C2 E2 F2 F2 G2 D2 |[M:2/2] E8 |] %9
V:3
 x2 (C2 C2) | B,6 C2 D2 C2 | B,8 C2 D2 | E6 E2 D2 C2 | B,8 (D2 D2) | E6 D2 C2 C2 | B,8 A,2 A,2 | %7
 A,2 C2 D2 D2 D2 B,2 |[M:2/2] ^C8 |] %9
V:4
 x2 (A,2 A,2) | E,6 A,2 G,2 A,2 | E,8 A,2 G,2 | C,6 C,2 G,2 A,2 | E,8 (D,2 D,2) | %5
 A,,6 B,,2 C,2 D,2 | E,8 D,2 D,2 | A,,2 A,,2 D,2 D,2 E,2 E,2 |[M:2/2] A,,8 |] %9

